icons/filled/play-card-7.svg

<svg xmlns="http://www.w3.org/2000/svg" width="24" height="24" viewBox="0 0 24 24" fill="currentColor"><path d="M17 2a3 3 0 0 1 3 3v14a3 3 0 0 1 -3 3h-10a3 3 0 0 1 -3 -3v-14a3 3 0 0 1 3 -3zm.01 16h-.01a1 1 0 0 0 0 2h.01a1 1 0 0 0 0 -2m-3.01 -10h-4a1 1 0 0 0 -1 1l.007 .117a1 1 0 0 0 .993 .883h2.612l-1.56 4.684a1 1 0 1 0 1.897 .632l2 -6a1 1 0 0 0 -.949 -1.316m-6.99 -4h-.01a1 1 0 1 0 0 2h.01a1 1 0 1 0 0 -2"/></svg>

<svg xmlns="http://www.w3.org/2000/svg" width="24" height="24" fill="currentColor"><path d="M17 2a3 3 0 0 1 3 3v14a3 3 0 0 1-3 3H7a3 3 0 0 1-3-3V5a3 3 0 0 1 3-3zm.01 16H17a1 1 0 0 0 0 2h.01a1 1 0 0 0 0-2M14 8h-4a1 1 0 0 0-1 1l.007.117A1 1 0 0 0 10 10h2.612l-1.56 4.684a1 1 0 1 0 1.897.632l2-6A1 1 0 0 0 14 8M7.01 4H7a1 1 0 1 0 0 2h.01a1 1 0 1 0 0-2"/></svg>
